X:1
T:The Mighty Conqueror
T:Adam Geibel
T:The Mighty Conqueror
T:Public Domain
T:Public Domain
C:Adam Geibel
Z:Public Domain
%%score ( 1 2 ) ( 3 4 )
L:1/8
M:2/4
K:F
V:1 treble 
V:2 treble 
V:3 bass 
V:4 bass 
V:1
 C | [CF][CF] [CF][CF] | [CF] [CF]2 [EG] | [FA][FA] [GB][FA] | [EG]3 C | [EG][EG] [EG][EG] | %6
w: 1.~Je-|the migh- ty Conq-|’ror, Now ris-|es from the tomb,|His re-|rect- ion glo- ry|
w: 2.~The|its aw- ful con-|quest O’er man|for ag- es won;|De- feat-|now sur- ren- ders|
w: 3.~Death’s|for- e’er is brok-|en, God’s saints|no long- er mourn;|Its sting|bring no tor- ture,|
 [EG] [EG]2 [FA] | [GB][GB] [Ac][GB] | [FA]3 [GB] | [Ac][Ac] [Ac][Ac] | [Ac] [Ac]2 [Ac] | %11
w: Dis- pels its|chill- ing gloom. While,|from its|o- pen por- tals,|An an- gel,|
w: To God’s vic-|tor- ious Son; The|might- y|Conq- ’ror, cap- tive|Now leads cap-|
w: For Christ the|curse hath borne; His|glor- ious|ex- al- ta- tion|Let men and|
 [Ac][Ac] [Ff][Fe] | [Fd]2 [FB][Fc] | [Fd]2 [Fd]2 | [Fc] F2 [GB] | [FA][FA] [EG][EG] | F2 || %17
w: clad in light, Doth|re- veal to|mor- tals|The tri- umphs|His might. * *||
w: tiv- i- ty, Pre-|cious gifts be-|stow- ing|Of life and|er- ty. For the|Lord|
w: an- gels sing; Je-|sus, might- y|Con- q’ror!|In earth and|is King. * *||
"^Refrain" CC | [CF]2 [FA]2 | [EG] F2 [EG] | [FA]2 [Fc]2 | [EB] [FA]2 [EB] | [Fc]2 [Ff]2 | %23
w: ||||||
w: ris- en,|hath ris-|en, The Lord|ris- en,|And con- quered|ev- ery|
w: ||||||
 [Fd] [Fc]2 [GB] | [FA][FA] [EG][EG] | F3 |] %26
w: |||
w: foe. * *|||
w: |||
V:2
 C | x4 | x4 | x4 | x3 C | x4 | x4 | x4 | x4 | x4 | x4 | x4 | x4 | x4 | x F2 x | x4 | F2 || CC | %18
w: sus||||sur-||||||||||of||||
w: grave||||ed,||||||||||lib-||hath|The Lord|
w: power||||can||||||||||Heaven||||
 x4 | x F2 x | x4 | x4 | x4 | x4 | x4 | F3 |] %26
w: ||||||||
w: |hath|||||||
w: ||||||||
V:3
 [F,A,] | [F,A,][F,A,] [F,A,][F,A,] | [F,A,] [F,A,]2 [F,B,] | [F,C][F,C] [F,C][F,C] | %4
 [C,C]3 [C,C] | [C,C][C,C] [C,C][C,C] | [C,C] [C,C]2 [C,C] | [C,C][C,C] [C,C][C,C] | [F,C]3 [F,C] | %9
 [F,C][F,C] [F,C][F,C] | [F,C] [F,C]2 [F,C] | [F,C][F,C] [F,A,][F,A,] | B,2 [B,D][B,C] | B,2 B,2 | %14
 [A,C] [A,C]2 [B,D] | CC [C,B,][C,B,] | [F,A,]2 || [F,A,][F,A,] | [F,A,]2 [F,C]2 | %19
 [C,B,] [F,A,]2 [C,C] | [F,C]2 [A,C]2 | [G,C] [F,C]2 [G,C] | [A,C]2 [A,C]2 | B, [A,C]2 [B,D] | %24
 CC [C,B,][C,B,] | [F,A,]3 |] %26
V:4
 x | x4 | x4 | x4 | x4 | x4 | x4 | x4 | x4 | x4 | x4 | x4 | B,2 x2 | B,2 B,2 | x4 | CC x2 | x2 || %17
 x2 | x4 | x4 | x4 | x4 | x4 | B, x3 | CC x2 | x3 |] %26

